X:209
T:Hejsan, bra finanser!
T:(SvL Hälsingland 209)
R:Polska
O:Delsbo, Hälsingland
B:Svenska Låtar Hälsingland
S:Carl Sved
S:Per Andersson
S:P. Söderblom
M:3/4
L:1/8
K:C
G|c2 c2 ce|ed d4|cB AG AB|c4 z:|G|e2 c>c c>c|f2 d>d d>d|
e2 c>c c>c|G2 gf ed|c2 c2 ce|ed d4|cB AG AB|c4 z:|

